X: 1
T:Jack Daniel's Reel
M:4/4
L:1/8
C:John Morris Rankin
S:Fare The Well
R:Reel
K:A
e |\
"A"a2ea f{g}aec | Acaf e2ce | "D"fd d/2d/2d d2fd | "A"ec c/2c/2c "E7"cBBe |
"A"a2ea f{g}aec | Acaf e2ce | "D"f2ec "A"e2fe | "E7"c2Be "A"cAA :|
|:f |\
"A"ecBc AcBc | Acaf e2ce | "D"fdcd Adcd | "Bm"ABde "E7"fe e/2e/2e |
"A"fece Bece | "E7"Acaf "A"e2ce | "D"f2ec "A"e2fe | "E7"c2Be "A"cAA :|
